!!!!SEGMENT: pl-wnifc--13846--029_anonim--piesni-polskie-i-ruskie-ludu-galicyjskiego-29-oj-przelecial-ptaszek.krn
!!!kernsource:
!!!cenid: 18xx:3251
!!!COM: Anonim
!!!COM-rismid: pe30004985
!!!CDT:
!!!CNT:
!!!GTL: Pieśni polskie i ruskie ludu galicyjskiego
!!!OTL: 29. Oj przeleciał ptaszek
!!!PDT: 1833
!!!AGN:
!!!SMS-siglum: PL-Wnifc
!!!SMS-shelfmark: 13846
!!!SMS-shelfwork: 029 G
!!!SMS-variant:
!!!SMS-altvar:
!!!NIFC-rismid: 1001036787
!!!URL-scan: http://repozytorium.nifc.pl/skany/pl-wnifc-nut--13846
!!!ONB-nifc:
!!!OMD: Tempo di Polacca.
!!!AIN: 1 piano 1 vox
!!!key: G
**kern	**kern	**dynam	**kern	**text
*part2	*part2	*part2	*part1	*part1
*staff3	*staff2	*	*staff1	*staff1
*I"Fortepian	*I"Fortepian	*	*I"Głos	*
*Ipiano	*Ipiano	*	*Ivox	*
*ICklav	*ICklav	*	*ICvox	*
*IGacmp	*IGacmp	*	*IGsolo	*
*clefF4	*clefG2	*	*clefG2	*
*k[f#]	*k[f#]	*	*k[f#]	*
*G:	*G:	*	*G:	*
*M6/8	*M6/8	*	*M6/8	*
*>[A,B,B]	*>[A,B,B]	*	*>[A,B,B]	*
=1	=1	=1	=1	=1
*>A	*>A	*	*>A	*
!!LO:TX:t=P:problem:błędne metrum 3/8, utwór zapiany jako 6/8
!	!	!LO:DY:b=2:rj	!LO:TX:a:t=D.ba.1.	!
8GG/ 8BB/ 8D/ 8G/	8.g\L	f	8.g/	Oj
8r	.	.	.	.
.	16g\KJ 16b\	.	16b/	prze-
8G\ 8B\ 8d\	8b\L 8dd\	.	8dd\	-le-
8r	8a#X\ 8cc#X\	.	8cc#X\	-ciał
8G\ 8B\ 8d\	8b\ 8dd\	.	8dd\	pta-
8r	8a#\J 8cc#\	.	8cc#\	-szek
=2	=2	=2	=2	=2
8GG/ 8G/	8b\L 8dd\	.	8dd\	przez
8r	8b\J 8dd\	.	8dd\	tu-
!!LO:LB:g=original
=-	=-	=-	=-	=-
8GG/ 8G/	8ccnX\L 8ee\	.	8ee\	-tej-
8r	8b\J 8dd\	.	8dd\	-szy
8GG/ 8G/	8a\L 8cc\	.	8ccn\	la-
8r	8g\J 8b\	.	8b\	-sek,
=3	=3	=3	=3	=3
8DD/ 8D/	8.f#/L 8.a/	.	8.a/	piór-
8r	.	.	.	.
.	16g/Jk 16b/	.	16b/	-ka
8D\ 8F#\ 8d\	4a\ 4cc\	.	4ccn\	na
8r	.	.	.	.
8D\ 8F#\ 8d\	4a\ 4cc\	.	4cc\	nim
8r	.	.	.	.
!!LO:LB:g=original
=4	=4	=4	=4	=4
8D\ 8G\ 8d\	8g\L 8b\	.	8b\	za-
8r	8b\J 8dd\	.	8dd\	-drza-
8D\ 8F#\ 8d\	4f#/ 4a/	.	4a/	-ły
!	!	!LO:DY:b=2:rj	!	!
8DD/L 8D/	.	f	.	.
8FF#/ 8F#/	4r	.	4r	.
8AA\J 8A\	.	.	.	.
=5!|:	=5!|:	=5!|:	=5!|:	=5!|:
*>B	*>B	*	*>B	*
8DD/ 8D/	8.f#/L 8.a/	.	8.a/	a
8r	.	.	.	.
.	16g/KJ 16b/	.	16b/	roz-
8D\ 8F#\ 8d\	8a/L 8cc/	.	8cc/	-my-
8r	8g#X/ 8b/	.	8b/	-ślaj
8D\ 8F#\ 8d\	8a/ 8cc/	.	8cc/	że
8r	8g#/J 8b/	.	8b/	się
!!LO:LB:g=original
=6	=6	=6	=6	=6
8DD/ 8D/	8a\L 8cc\	.	8cc\	ty
8r	8cc\ 8ee\	.	8ee\	mo-
8D\ 8d\	8b\ 8dd\	.	8dd\	-ja
8r	8a\ 8cc\	.	8cc\	dziew-
8D\ 8d\	8g\ 8bn\	.	8b\	-czy-
8r	8f#\J 8a\	.	8a/	-no
=7	=7	=7	=7	=7
8G\ 8d\	8g/L	.	8g/	al-
8r	8b/J	.	8b\	-bo
4BBB/ 4BB/	4d/ 4g/ 4dd/	.	4dd\	ci
4AAA/ 4AA/	4e/ 4a/ 4cc/	.	4cc\	czas
!!LO:LB:g=original
=8	=8	=8	=8	=8
8DD/L 8D/	8d/L 8f#/ 8a/	.	8a/	nie
8D\J 8F#\ 8c\	8f#/J 8a/ 8dd/	.	8dd\	ma-
4G\ 4B\	4d/ 4g/ 4b/	.	4b\	-ły.
4r	4r	.	4r	.
!!LO:LB:g=original
==	==	==	==	==
*-	*-	*-	*-	*-
!!!system-decoration: s1,{(s2,s3)}
!!!RDF**kern: < = below
!!!RDF**kern: > = above
!!!ENC: Marta Chmielewska
!!!END: 2021-11-10
